X: 39982
T: Three Deer And A Hare
R: jig
M: 6/8
K: Ddorian
|:dcA AGE|DE/F/D DCA,|CDE GAB|cec dfe|
dcA AGE|DE/F/D DCA,|CDE GcA|GEC D2A:|
|:~d3 ecA|AGA cde|dcA AGE|DCA, CA,G,|
~A,3 CA,G,|~A,3 CDE|GcA GEC|DED D2A:|

